svg/pregnant_3638w_outline.svg

<svg width="48" height="48" viewBox="0 0 48 48" fill="none" xmlns="http://www.w3.org/2000/svg">
<path fill-rule="evenodd" clip-rule="evenodd" d="M23.9197 4.00977C16.0368 4.00977 9.64589 10.4009 9.64589 18.2826C9.64579 26.1655 16.0368 32.5564 23.9197 32.5564C31.8026 32.5564 38.1935 26.1655 38.1925 18.2826C38.1925 10.4007 31.8026 4.00977 23.9197 4.00977ZM23.9157 4.51756C31.5126 4.51646 37.6715 10.6779 37.6715 18.2764C37.6715 25.8763 31.5126 32.0372 23.9157 32.0362C16.3198 32.0362 10.1619 25.8763 10.1619 18.2764C10.1619 10.6785 16.3198 4.51756 23.9157 4.51756ZM22.8317 6.66983C22.6457 6.67113 22.4537 6.77423 22.3667 7.02333C22.0507 7.72532 21.5067 8.21901 21.2677 9.2128C20.9637 10.6449 23.4207 10.7669 24.1877 10.7639C26.3997 10.8449 27.1977 12.2229 24.9237 12.4279C23.0367 12.6049 21.0957 12.6519 20.7147 16.5348C20.6658 17.1028 20.9277 18.1108 21.3847 19.3928C21.5357 20.2328 21.2857 21.2008 20.7827 22.2497C20.5268 22.2197 20.3378 22.1277 20.2908 21.9157C20.3348 21.0108 20.5178 20.2458 20.1578 18.9358C19.8038 17.6648 18.9378 17.0598 18.0588 16.9038C16.2958 16.5378 14.7318 16.2068 13.3198 16.6758C11.8319 17.2338 12.3079 19.4388 13.5878 19.4668L15.1558 19.5098C16.2428 19.5318 16.8318 20.0098 16.2678 21.5367L15.5018 23.7577C14.8758 25.6687 16.9828 27.7587 19.7438 27.9997C22.5357 27.9347 24.1487 26.6877 26.3237 26.0077C28.4087 24.8537 28.0227 24.0347 28.0157 23.3007C27.6687 22.2827 27.6217 21.9127 26.8667 20.7598C26.5717 20.4478 26.4347 20.3608 26.0447 20.1018C25.0957 19.0508 26.6337 18.3838 27.7927 17.0098C28.3947 16.1558 27.3747 15.1538 26.1907 15.5018C25.1917 15.8278 24.6677 16.4368 23.6497 17.4898C23.0697 18.1288 22.2847 19.6228 23.3607 20.8828C23.6617 21.4617 23.2557 21.7367 22.2287 22.0657C21.8917 22.1497 21.6497 22.1667 21.3847 22.2007C21.9187 21.3107 22.0507 20.4018 21.9317 19.4818C21.7037 18.5148 21.3077 17.5888 21.2907 16.5678C21.6177 12.6589 23.9647 13.1969 25.8217 12.8959C26.7037 12.8659 28.5967 10.7699 24.5387 10.0329C23.2657 9.80519 22.0077 9.89859 22.2227 9.0604C22.4057 8.33081 22.9007 7.87322 23.2207 7.30852C23.4377 6.94903 23.1417 6.66773 22.8317 6.66983ZM31.7496 16.5898V16.5918C30.8496 16.5918 29.9516 16.9358 29.2656 17.6228C27.8937 18.9958 27.8917 21.2258 29.2656 22.5977C30.6386 23.9697 32.8676 23.9647 34.2396 22.5897C35.6116 21.2158 35.6076 18.9868 34.2336 17.6148C33.5476 16.9288 32.6496 16.5888 31.7496 16.5898ZM7.72691 35.0956C7.26412 35.0956 6.83972 35.1856 6.45343 35.3626C6.07073 35.5406 5.77074 35.7866 5.55504 36.1036C5.34274 36.4166 5.23664 36.7706 5.23664 37.1676H6.74442C6.74442 36.9136 6.84262 36.7086 7.03742 36.5526C7.23232 36.3926 7.47322 36.3116 7.76201 36.3116C8.08211 36.3116 8.333 36.3976 8.514 36.5676C8.6984 36.7386 8.7913 36.9766 8.7913 37.2826C8.7913 37.5995 8.6984 37.8535 8.514 38.0445C8.3296 38.2355 8.04711 38.3315 7.66441 38.3315H6.85972V39.5115H7.65851C8.4936 39.5115 8.9105 39.8915 8.9105 40.6495C8.9105 40.9635 8.8091 41.2145 8.6038 41.4055C8.402 41.5935 8.12041 41.6875 7.76201 41.6875C7.44892 41.6875 7.18472 41.5965 6.96912 41.4155C6.75682 41.2345 6.65073 41.0015 6.65073 40.7165H5.14294C5.14294 41.3735 5.38344 41.9045 5.86364 42.3045C6.34723 42.7045 6.96832 42.9035 7.72691 42.9035C8.5376 42.9035 9.18739 42.6995 9.67799 42.2925C10.1723 41.8855 10.4203 41.3445 10.4203 40.6695C10.4203 40.2515 10.3143 39.8895 10.1023 39.5835C9.89268 39.2775 9.57479 39.0495 9.14679 38.8955C9.49129 38.7395 9.76849 38.5145 9.98078 38.2225C10.1933 37.9295 10.2993 37.6095 10.2993 37.2616C10.2993 36.5866 10.0713 36.0586 9.61549 35.6756C9.15969 35.2896 8.5306 35.0956 7.72691 35.0956ZM24.1557 35.0956C23.6927 35.0956 23.2687 35.1856 22.8827 35.3626C22.4997 35.5406 22.1997 35.7866 21.9837 36.1036C21.7717 36.4166 21.6657 36.7706 21.6657 37.1676H23.1757C23.1757 36.9136 23.2717 36.7086 23.4667 36.5526C23.6617 36.3926 23.9047 36.3116 24.1927 36.3116C24.5127 36.3116 24.7637 36.3976 24.9447 36.5676C25.1297 36.7386 25.2207 36.9766 25.2207 37.2826C25.2207 37.5995 25.1297 37.8535 24.9447 38.0445C24.7607 38.2355 24.4757 38.3315 24.0937 38.3315H23.2887V39.5115H24.0877C24.9227 39.5115 25.3417 39.8915 25.3417 40.6495C25.3417 40.9635 25.2377 41.2145 25.0327 41.4055C24.8307 41.5935 24.5517 41.6875 24.1927 41.6875C23.8797 41.6875 23.6157 41.5965 23.3997 41.4155C23.1877 41.2345 23.0817 41.0015 23.0817 40.7165H21.5717C21.5717 41.3735 21.8127 41.9045 22.2927 42.3045C22.7767 42.7045 23.3977 42.9035 24.1557 42.9035C24.9667 42.9035 25.6167 42.6995 26.1067 42.2925C26.6017 41.8855 26.8497 41.3445 26.8497 40.6695C26.8497 40.2515 26.7437 39.8895 26.5307 39.5835C26.3217 39.2775 26.0037 39.0495 25.5757 38.8955C25.9207 38.7395 26.1977 38.5145 26.4097 38.2225C26.6217 37.9295 26.7287 37.6095 26.7287 37.2616C26.7287 36.5866 26.5007 36.0586 26.0447 35.6756C25.5887 35.2896 24.9597 35.0956 24.1557 35.0956ZM30.4386 35.0956C29.6976 35.0956 29.1126 35.2896 28.6816 35.6756C28.2497 36.0586 28.0347 36.5736 28.0347 37.2206C28.0347 37.5895 28.1257 37.9155 28.3067 38.2005C28.4907 38.4855 28.7446 38.7135 29.0676 38.8845C28.7027 39.0585 28.4107 39.3015 28.1947 39.6145C27.9797 39.9275 27.8727 40.2955 27.8727 40.7165C27.8727 41.3875 28.1037 41.9195 28.5657 42.3115C29.0286 42.7055 29.6546 42.9035 30.4446 42.9035C31.2346 42.9035 31.8586 42.7095 32.3176 42.3195C32.7776 41.9265 33.0076 41.3915 33.0076 40.7165C33.0076 40.2955 32.9006 39.9305 32.6856 39.6205C32.4696 39.3075 32.1766 39.0615 31.8086 38.8845C32.1316 38.7135 32.3856 38.4855 32.5696 38.2005C32.7546 37.9155 32.8456 37.5895 32.8456 37.2206C32.8456 36.5666 32.6276 36.0486 32.1926 35.6696C31.7616 35.2866 31.1766 35.0956 30.4386 35.0956ZM15.3048 35.1226C14.5358 35.1266 13.8578 35.3016 13.2728 35.6496C12.6918 35.9946 12.2469 36.4816 11.9339 37.1146C11.6239 37.7445 11.4689 38.4715 11.4689 39.2965V39.8395C11.4689 40.7685 11.7139 41.5115 12.2049 42.0675C12.6988 42.6245 13.3458 42.9035 14.1458 42.9035C14.6408 42.9035 15.0808 42.7925 15.4708 42.5695C15.8638 42.3475 16.1668 42.0365 16.3788 41.6365C16.5948 41.2365 16.7028 40.7885 16.7028 40.2945C16.7028 39.5215 16.5088 38.8985 16.1188 38.4255C15.7288 37.9525 15.2038 37.7165 14.5428 37.7165C13.9268 37.7165 13.4168 37.9205 13.0138 38.3315C13.0968 37.7195 13.3458 37.2406 13.7598 36.8956C14.1768 36.5516 14.7258 36.3756 15.4078 36.3646H15.5548V35.1226H15.3048ZM33.6966 35.2006L35.3826 42.8005H36.9585L38.1945 37.7165L39.4335 42.8005H41.0095L42.6945 35.2006H41.1345L40.1105 40.6065L38.8645 35.2006H37.5385L36.2846 40.5975L35.2576 35.2006H33.6966ZM30.4386 36.3116C30.7246 36.3116 30.9466 36.4026 31.1036 36.5836C31.2596 36.7606 31.3376 36.9966 31.3376 37.2925C31.3376 37.5955 31.2596 37.8385 31.1036 38.0225C30.9496 38.2075 30.7306 38.3005 30.4446 38.3005C30.1596 38.3005 29.9396 38.2075 29.7826 38.0225C29.6266 37.8385 29.5486 37.5955 29.5486 37.2925C29.5486 36.9866 29.6266 36.7476 29.7826 36.5736C29.9396 36.3996 30.1576 36.3116 30.4386 36.3116ZM14.0838 38.9275C14.4248 38.9275 14.6948 39.0545 14.8958 39.3085C15.0978 39.5625 15.1988 39.8955 15.1988 40.3105C15.1988 40.7175 15.0978 41.0485 14.8958 41.3065C14.6978 41.5605 14.4388 41.6875 14.1148 41.6875C13.7568 41.6875 13.4778 41.5465 13.2788 41.2655C13.0808 40.9795 12.9818 40.5845 12.9818 40.0795V39.6205C13.0758 39.4115 13.2218 39.2455 13.4198 39.1205C13.6178 38.9915 13.8398 38.9275 14.0838 38.9275ZM17.6578 38.9375V40.1535H20.5978V38.9375H17.6578ZM30.4356 39.5175C30.7586 39.5175 31.0156 39.6155 31.2066 39.8135C31.3976 40.0125 31.4936 40.2765 31.4936 40.6065C31.4936 40.9445 31.4006 41.2085 31.2126 41.3995C31.0276 41.5915 30.7716 41.6875 30.4446 41.6875C30.1106 41.6875 29.8496 41.5885 29.6616 41.3905C29.4736 41.1915 29.3806 40.9305 29.3806 40.6065C29.3806 40.2725 29.4766 40.0085 29.6676 39.8135C29.8586 39.6155 30.1146 39.5175 30.4356 39.5175Z" fill="#333333"/>
</svg>

<?xml version="1.0" encoding="UTF-8" standalone="no"?>
<!-- Created with Inkscape (http://www.inkscape.org/) -->
<svg id="svg8" xmlns:rdf="http://www.w3.org/1999/02/22-rdf-syntax-ns#" xmlns="http://www.w3.org/2000/svg" height="48" viewBox="0 0 12.7 12.7" width="48" version="1.1" xmlns:cc="http://creativecommons.org/ns#" xmlns:dc="http://purl.org/dc/elements/1.1/">
 <title id="title4753">UIO-icon</title>
 <metadata id="metadata5">
  <rdf:RDF>
   <cc:Work rdf:about="">
    <dc:format>image/svg+xml</dc:format>
    <dc:type rdf:resource="http://purl.org/dc/dcmitype/StillImage"/>
    <dc:title>UIO-icon</dc:title>
    <dc:creator>
     <cc:Agent>
      <dc:title>Joaquín Urbano</dc:title>
     </cc:Agent>
    </dc:creator>
    <dc:rights>
     <cc:Agent>
      <dc:title>GPL</dc:title>
     </cc:Agent>
    </dc:rights>
   </cc:Work>
  </rdf:RDF>
 </metadata>
 <path id="circle5040" d="m23.92 4.0098c-7.883 0-14.274 6.3912-14.274 14.273-0.0001 7.883 6.391 14.274 14.274 14.274s14.274-6.391 14.273-14.274c0-7.882-6.39-14.273-14.273-14.273zm-0.004 0.5078c7.597-0.0011 13.756 6.1604 13.756 13.759 0 7.6-6.159 13.761-13.756 13.76-7.596 0-13.754-6.16-13.754-13.76 0-7.598 6.158-13.759 13.754-13.759zm-1.084 2.1523c-0.186 0.0013-0.378 0.1044-0.465 0.3535-0.316 0.702-0.86 1.1957-1.099 2.1895-0.304 1.4321 2.153 1.5541 2.92 1.5511 2.212 0.081 3.01 1.459 0.736 1.664-1.887 0.177-3.828 0.224-4.209 4.107-0.049 0.568 0.213 1.576 0.67 2.858 0.151 0.84-0.099 1.808-0.602 2.857-0.256-0.03-0.445-0.122-0.492-0.334 0.044-0.905 0.227-1.67-0.133-2.98-0.354-1.271-1.22-1.876-2.099-2.032-1.763-0.366-3.327-0.697-4.739-0.228-1.488 0.558-1.012 2.763 0.268 2.791l1.568 0.043c1.087 0.022 1.676 0.5 1.112 2.027l-0.766 2.221c-0.626 1.911 1.481 4.001 4.242 4.242 2.792-0.065 4.405-1.312 6.58-1.992 2.085-1.154 1.699-1.973 1.692-2.707-0.347-1.018-0.394-1.388-1.149-2.541-0.295-0.312-0.432-0.399-0.822-0.658-0.949-1.051 0.589-1.718 1.748-3.092 0.602-0.854-0.418-1.856-1.602-1.508-0.999 0.326-1.523 0.935-2.541 1.988-0.58 0.639-1.365 2.133-0.289 3.393 0.301 0.579-0.105 0.854-1.132 1.183-0.337 0.084-0.579 0.101-0.844 0.135 0.534-0.89 0.666-1.799 0.547-2.719-0.228-0.967-0.624-1.893-0.641-2.914 0.327-3.909 2.674-3.371 4.531-3.672 0.882-0.03 2.775-2.126-1.283-2.863-1.273-0.2277-2.531-0.1343-2.316-0.9725 0.183-0.7296 0.678-1.1872 0.998-1.7519 0.217-0.3595-0.079-0.6408-0.389-0.6387zm8.918 9.9201v0.002c-0.9 0-1.798 0.344-2.484 1.031-1.372 1.373-1.374 3.603 0 4.975 1.373 1.372 3.602 1.367 4.974-0.008 1.372-1.374 1.368-3.603-0.006-4.975-0.686-0.686-1.584-1.026-2.484-1.025zm-24.023 18.506c-0.4628 0-0.8872 0.09-1.2735 0.267-0.3827 0.178-0.6827 0.424-0.8984 0.741-0.2123 0.313-0.3184 0.667-0.3184 1.064h1.5078c0-0.254 0.0982-0.459 0.293-0.615 0.1949-0.16 0.4358-0.241 0.7246-0.241 0.3201 0 0.571 0.086 0.752 0.256 0.1844 0.171 0.2773 0.409 0.2773 0.715 0 0.317-0.0929 0.571-0.2773 0.762s-0.4669 0.287-0.8496 0.287h-0.8047v1.18h0.7988c0.8351 0 1.252 0.38 1.252 1.138 0 0.314-0.1014 0.565-0.3067 0.756-0.2018 0.188-0.4834 0.282-0.8418 0.282-0.3131 0-0.5773-0.091-0.7929-0.272-0.2123-0.181-0.3184-0.414-0.3184-0.699h-1.5078c0 0.657 0.2405 1.188 0.7207 1.588 0.4836 0.4 1.1047 0.599 1.8633 0.599 0.8107 0 1.4605-0.204 1.9511-0.611 0.4943-0.407 0.7423-0.948 0.7423-1.623 0-0.418-0.106-0.78-0.318-1.086-0.2096-0.306-0.5275-0.534-0.9555-0.688 0.3445-0.156 0.6217-0.381 0.834-0.673 0.2125-0.293 0.3185-0.613 0.3185-0.961 0-0.675-0.228-1.203-0.6838-1.586-0.4558-0.386-1.0849-0.58-1.8886-0.58zm16.429 0c-0.463 0-0.887 0.09-1.273 0.267-0.383 0.178-0.683 0.424-0.899 0.741-0.212 0.313-0.318 0.667-0.318 1.064h1.51c0-0.254 0.096-0.459 0.291-0.615 0.195-0.16 0.438-0.241 0.726-0.241 0.32 0 0.571 0.086 0.752 0.256 0.185 0.171 0.276 0.409 0.276 0.715 0 0.317-0.091 0.571-0.276 0.762-0.184 0.191-0.469 0.287-0.851 0.287h-0.805v1.18h0.799c0.835 0 1.254 0.38 1.254 1.138 0 0.314-0.104 0.565-0.309 0.756-0.202 0.188-0.481 0.282-0.84 0.282-0.313 0-0.577-0.091-0.793-0.272-0.212-0.181-0.318-0.414-0.318-0.699h-1.51c0 0.657 0.241 1.188 0.721 1.588 0.484 0.4 1.105 0.599 1.863 0.599 0.811 0 1.461-0.204 1.951-0.611 0.495-0.407 0.743-0.948 0.743-1.623 0-0.418-0.106-0.78-0.319-1.086-0.209-0.306-0.527-0.534-0.955-0.688 0.345-0.156 0.622-0.381 0.834-0.673 0.212-0.293 0.319-0.613 0.319-0.961 0-0.675-0.228-1.203-0.684-1.586-0.456-0.386-1.085-0.58-1.889-0.58zm6.283 0c-0.741 0-1.326 0.194-1.757 0.58-0.432 0.383-0.647 0.898-0.647 1.545 0 0.369 0.091 0.695 0.272 0.98 0.184 0.285 0.438 0.513 0.761 0.684-0.365 0.174-0.657 0.417-0.873 0.73-0.215 0.313-0.322 0.681-0.322 1.102 0 0.671 0.231 1.203 0.693 1.595 0.463 0.394 1.089 0.592 1.879 0.592s1.414-0.194 1.873-0.584c0.46-0.393 0.69-0.928 0.69-1.603 0-0.421-0.107-0.786-0.322-1.096-0.216-0.313-0.509-0.559-0.877-0.736 0.323-0.171 0.577-0.399 0.761-0.684 0.185-0.285 0.276-0.611 0.276-0.98 0-0.654-0.218-1.172-0.653-1.551-0.431-0.383-1.016-0.574-1.754-0.574zm-15.134 0.027c-0.769 0.004-1.447 0.179-2.032 0.527-0.581 0.345-1.026 0.832-1.339 1.465-0.31 0.63-0.465 1.357-0.465 2.182v0.543c0 0.929 0.245 1.672 0.736 2.228 0.494 0.557 1.141 0.836 1.941 0.836 0.495 0 0.935-0.111 1.325-0.334 0.393-0.222 0.696-0.533 0.908-0.933 0.216-0.4 0.324-0.848 0.324-1.342 0-0.773-0.194-1.396-0.584-1.869s-0.915-0.709-1.576-0.709c-0.616 0-1.126 0.204-1.529 0.615 0.083-0.612 0.332-1.091 0.746-1.436 0.417-0.344 0.966-0.52 1.648-0.531h0.147v-1.242h-0.25zm18.392 0.078l1.686 7.6h1.576l1.236-5.084 1.239 5.084h1.576l1.685-7.6h-1.56l-1.024 5.406-1.246-5.406h-1.326l-1.254 5.397-1.027-5.397h-1.561zm-3.258 1.111c0.286 0 0.508 0.091 0.665 0.272 0.156 0.177 0.234 0.413 0.234 0.709 0 0.303-0.078 0.546-0.234 0.73-0.154 0.185-0.373 0.278-0.659 0.278-0.285 0-0.505-0.093-0.662-0.278-0.156-0.184-0.234-0.427-0.234-0.73 0-0.306 0.078-0.545 0.234-0.719 0.157-0.174 0.375-0.262 0.656-0.262zm-16.355 2.616c0.341 0 0.611 0.127 0.812 0.381 0.202 0.254 0.303 0.587 0.303 1.002 0 0.407-0.101 0.738-0.303 0.996-0.198 0.254-0.457 0.381-0.781 0.381-0.358 0-0.637-0.141-0.836-0.422-0.198-0.286-0.297-0.681-0.297-1.186v-0.459c0.094-0.209 0.24-0.375 0.438-0.5 0.198-0.129 0.42-0.193 0.664-0.193zm3.574 0.01v1.216h2.94v-1.216h-2.94zm12.778 0.58c0.323 0 0.58 0.098 0.771 0.296 0.191 0.199 0.287 0.463 0.287 0.793 0 0.338-0.093 0.602-0.281 0.793-0.185 0.192-0.441 0.288-0.768 0.288-0.334 0-0.595-0.099-0.783-0.297-0.188-0.199-0.281-0.46-0.281-0.784 0-0.334 0.096-0.598 0.287-0.793 0.191-0.198 0.447-0.296 0.768-0.296z" fill-rule="evenodd" transform="scale(.26458)" stroke-width=".99999" fill="#333"/>
</svg>
